X: 1
T: Hoop Her And Gird Her
M: 6/8
L: 1/8
R: jig
K: Gmaj
|:GBG Bcd|GBG B2G|GBG Bcd|A=FA c2A|
GBG Bcd|GAB gdB|cac BgB|A=FA c2A:|
|:g3 def|gfe dBG|g3 de=f|A=FA c2A|
g3 def|gfe dcB|cac BgB|A=FA c2A:|
|:BGG ADD|BGG ABc|BGG ADD|A=FA ABc|
BGG ADD|GAB gdB|cac BgB|A=FA c2A:|
|:gdB gdB|GAB d2B|gdB gdB|A=FA c2A|
gdB gdB|GAB gdB|cac BgB|A=FA c2A:|
